!!!COM: phantom-planet
!!!OTL: california
!!!RNB: hooktheoryid: ZdPoDqpdmnM
**kern	**text
*clefG2	*
*k[f#c#g#d#]	*
*M4/4	*
=1	=1
8g#	C#m
8b	.
8cc#	.
8b	.
4.cc#	.
[8g#	.
=2	=2
8g#]	.
8b	.
8cc#	.
8b	.
2cc#	.
=3	=3
8g#	.
8b	.
8cc#	.
8b	.
4cc#	A
8dd#	.
[8b	E
=4	=4
2b]	.
4g#	.
8f#	.
[8f#	.
=5	=5
4f#]	A
8e	.
4.e	.
8f#	.
[8g#	.
=6	=6
2g#]	E
4g#	.
8f#	.
[8f#	.
=7	=7
4f#]	A
8e	.
4.e	.
8f#	.
[8g#	.
=8	=8
4.g#]	E
2r	.
8r	.
*-	*-